assets/img/arr-ex.svg

<svg width="134" height="236" viewBox="0 0 134 236" fill="none" xmlns="http://www.w3.org/2000/svg">
<path d="M39.8511 210.368C44.4962 207.667 49.1118 204.945 53.6083 202.103C58.0886 199.272 62.3282 196.21 66.3036 192.933L72.2194 187.824L75.2082 185.282L78.0968 182.665C81.9102 179.18 85.4605 175.509 88.7312 171.671C92.0248 167.848 94.9394 163.809 97.4509 159.589C97.7607 159.062 98.0898 158.538 98.3876 158.004L99.2299 156.387C99.7836 155.29 100.361 154.249 100.881 153.115L102.645 149.145C103.264 147.669 103.929 146.079 104.598 144.58L106.015 141.278C106.491 140.205 106.938 139.147 107.37 138.103L108.684 135.016L109.92 131.953L110.54 130.429L111.124 128.884L112.292 125.756C113.003 123.625 113.794 121.456 114.44 119.119C115.827 114.478 117.047 109.808 118.136 105.122C119.225 100.435 120.115 95.7085 120.815 90.9603C121.898 83.6009 122.506 76.172 122.635 68.7032C122.713 61.965 122.23 55.1951 121.188 48.4388C120.128 41.6479 118.462 34.8897 116.203 28.217C115.919 27.3878 115.665 26.5424 115.346 25.7282L114.393 23.2548C113.791 21.5693 113.042 19.9692 112.331 18.3337L111.726 16.9748C111.518 16.5224 111.282 16.0759 111.06 15.6264C110.606 14.7294 110.162 13.8285 109.728 12.9242C108.847 11.1172 107.917 9.32796 107.239 7.4659C106.81 6.43775 106.177 5.20065 106.748 4.08525C107.09 3.35059 107.509 2.64489 108 1.97439C108.374 1.37408 109.019 0.921819 109.814 0.702913C110.892 0.502672 111.882 1.13107 112.569 1.66025C114.128 2.93726 115.4 4.4177 116.322 6.02694L118.38 9.22798L120.282 12.4862L121.218 14.1234L122.064 15.7822C122.618 16.8951 123.173 18.0032 123.692 19.1259C124.211 20.2486 124.632 21.3968 125.051 22.5235C125.267 23.0879 125.521 23.6589 125.692 24.2156L127.122 28.4798C127.416 29.3266 127.633 30.1916 127.893 31.0431L128.636 33.6124C128.882 34.4668 129.067 35.3266 129.292 36.1879L129.962 38.7556C130.153 39.6216 130.329 40.4905 130.488 41.351L131.015 43.9415L131.847 49.0948L132.16 51.6537L132.459 54.2154L132.685 56.7755C133.373 64.6448 133.456 72.5026 132.934 80.3047C132.172 90.3145 130.433 100.201 127.734 109.873C127.106 112.065 126.49 114.259 125.767 116.424C125.043 118.589 124.102 120.786 123.238 122.953C121.191 127.877 119.221 132.813 116.839 137.558C114.372 142.41 111.592 147.144 108.929 151.899C106.265 156.653 103.895 161.443 100.845 166.01C100.063 167.135 99.2493 168.249 98.4041 169.352C97.5101 170.417 96.5912 171.473 95.6666 172.522C94.7421 173.571 93.7333 174.569 92.7606 175.589L91.2972 177.106L89.7729 178.59C88.7382 179.584 87.7564 180.618 86.692 181.591L83.5305 184.52C81.3425 186.423 79.1787 188.341 76.8691 190.139C72.3345 193.763 67.5337 197.166 62.4888 200.333C57.5243 203.562 52.3093 206.543 46.8695 209.26L42.9456 211.167L41.8563 211.703C41.594 211.837 41.1987 212.165 40.8875 212.196C40.5835 212.155 40.299 212.029 40.0838 211.842C39.9349 211.758 39.8086 211.65 39.7139 211.525C39.6192 211.401 39.5585 211.263 39.5362 211.122C39.514 210.981 39.5307 210.84 39.5851 210.71C39.6396 210.579 39.7304 210.463 39.8511 210.368Z" fill="#F06400"/>
<path d="M1.01044 232.852L1.12398 232.655L1.35017 232.266L2.22365 230.739L3.93726 227.762L4.7885 226.326L5.60631 224.968C6.71161 223.175 7.91021 221.302 8.72928 220.092C9.62724 218.732 10.5261 217.367 11.3371 215.971C12.9548 213.205 14.0255 210.256 15.2615 207.35C16.4974 204.445 18.2816 201.755 19.7792 198.953C21.2768 196.15 22.7081 193.231 24.2127 190.387C25.7173 187.544 27.2786 184.758 28.9738 182.005C30.5833 179.211 32.3799 176.498 34.3563 173.877C34.8486 173.254 35.3345 172.631 35.8057 172.015L36.2012 171.492C36.2968 171.361 36.3386 171.078 36.5409 171.023C36.8216 171.015 37.1058 171.063 37.3677 171.165C38.112 171.361 38.6882 171.839 38.5331 172.124C35.8174 177.223 32.7165 182.203 30.7475 187.562C30.2459 188.937 29.796 190.321 29.1945 191.658L27.3672 195.686L23.7433 203.756C22.5457 206.477 21.3762 209.214 20.2348 211.969C19.665 213.353 19.0944 214.743 18.5552 216.143C18.0161 217.543 17.3365 219.568 16.5642 221.398L14.8977 225.263C14.8781 225.328 14.8667 225.395 14.8635 225.463C14.8635 225.463 14.8635 225.463 14.9216 225.473L15.0246 225.454C15.0928 225.433 15.1591 225.41 15.223 225.382C15.2998 225.347 15.3682 225.302 15.4256 225.248L16.0952 225.221L17.4706 225.187L20.2133 225.13C23.8745 225.066 27.5424 225.041 31.2095 225.021C36.9064 224.99 42.6011 225.127 48.3072 225.314L63.7411 225.849C68.8935 226.047 74.0516 226.263 79.2154 226.497L86.9031 226.839C89.7356 226.955 92.5954 226.912 95.4733 227.5C96.2755 227.669 97.2625 227.807 97.9597 228.744C98.4367 229.367 98.8639 230.01 99.2384 230.672C99.6044 231.285 99.8002 231.946 99.8112 232.606C99.8059 232.929 99.7051 233.24 99.5171 233.514C99.3291 233.788 99.0593 234.017 98.7299 234.182C97.6861 234.685 96.4738 234.947 95.2155 234.941C91.9292 235.105 88.648 235.318 85.3417 235.29C83.6949 235.277 82.0365 235.177 80.3956 235.091L65.5131 234.365L58.149 234.037C52.4681 233.78 46.8125 233.802 41.1479 233.723L19.2507 233.462L16.7553 233.435L13.1412 233.417C10.5492 233.411 8.14206 233.256 5.86999 233.168C4.54914 233.115 3.2653 233.08 1.99054 233.03L1.03759 233.004C0.924265 233.006 0.982279 232.9 1.01044 232.852Z" fill="#F06400"/>
</svg>

<svg width="134" height="236" fill="none" xmlns="http://www.w3.org/2000/svg"><path d="M39.851 210.368c4.645-2.701 9.26-5.423 13.757-8.265 4.48-2.831 8.72-5.893 12.696-9.17l5.915-5.109 2.99-2.542 2.888-2.617a122.831 122.831 0 0 0 10.634-10.994 85.56 85.56 0 0 0 8.72-12.082c.31-.527.639-1.051.937-1.585l.842-1.617c.554-1.097 1.131-2.138 1.651-3.272l1.764-3.97c.619-1.476 1.284-3.066 1.953-4.565l1.417-3.302c.476-1.073.923-2.131 1.355-3.175l1.314-3.087 1.236-3.063.62-1.524.584-1.545 1.168-3.128c.711-2.131 1.502-4.3 2.148-6.637a233.219 233.219 0 0 0 3.696-13.997 175.999 175.999 0 0 0 2.679-14.162 173.383 173.383 0 0 0 1.82-22.257 123.502 123.502 0 0 0-1.447-20.264 121.475 121.475 0 0 0-4.985-20.222c-.284-.83-.538-1.675-.857-2.489l-.953-2.473c-.602-1.686-1.351-3.286-2.062-4.921l-.605-1.36c-.208-.452-.444-.898-.666-1.348a140.86 140.86 0 0 1-1.332-2.702c-.881-1.807-1.811-3.596-2.489-5.458-.429-1.028-1.062-2.265-.491-3.38A12.51 12.51 0 0 1 108 1.973c.374-.6 1.019-1.052 1.814-1.271 1.078-.2 2.068.428 2.755.957 1.559 1.277 2.831 2.758 3.753 4.367l2.058 3.201 1.902 3.258.936 1.637.846 1.66c.554 1.112 1.109 2.22 1.628 3.343.519 1.123.94 2.27 1.359 3.397.216.565.47 1.136.641 1.693l1.43 4.264c.294.847.511 1.712.771 2.563l.743 2.57c.246.854.431 1.714.656 2.575l.67 2.568c.191.866.367 1.734.526 2.595l.527 2.59.832 5.154.313 2.559.299 2.561.226 2.56c.688 7.87.771 15.728.249 23.53a153.17 153.17 0 0 1-5.2 29.568c-.628 2.192-1.244 4.386-1.967 6.551-.724 2.165-1.665 4.362-2.529 6.529-2.047 4.924-4.017 9.86-6.399 14.605-2.467 4.852-5.247 9.586-7.91 14.341-2.664 4.754-5.034 9.544-8.084 14.111a89.196 89.196 0 0 1-2.44 3.342 173.954 173.954 0 0 1-2.738 3.17c-.925 1.049-1.934 2.047-2.906 3.067l-1.464 1.517-1.524 1.484c-1.035.994-2.017 2.028-3.081 3.001l-3.161 2.929c-2.189 1.903-4.352 3.821-6.662 5.619a155.178 155.178 0 0 1-14.38 10.194 158.689 158.689 0 0 1-15.62 8.927l-3.923 1.907-1.09.536c-.262.134-.657.462-.968.493a1.549 1.549 0 0 1-.804-.354 1.203 1.203 0 0 1-.37-.317.898.898 0 0 1-.178-.403.756.756 0 0 1 .05-.412.855.855 0 0 1 .265-.342Z" fill="#F06400"/><path d="m1.01 232.852.114-.197.226-.389.874-1.527 1.713-2.977.852-1.436.817-1.358a151.206 151.206 0 0 1 3.123-4.876c.898-1.36 1.797-2.725 2.608-4.121 1.618-2.766 2.688-5.715 3.925-8.621 1.235-2.905 3.02-5.595 4.517-8.397 1.498-2.803 2.93-5.722 4.434-8.566a147.762 147.762 0 0 1 4.76-8.382 78.99 78.99 0 0 1 5.383-8.128c.493-.623.978-1.246 1.45-1.862l.395-.523c.096-.131.138-.414.34-.469.28-.008.565.04.827.142.744.196 1.32.674 1.165.959-2.716 5.099-5.816 10.079-7.786 15.438-.501 1.375-.951 2.759-1.552 4.096l-1.828 4.028-3.624 8.07a408.81 408.81 0 0 0-3.508 8.213c-.57 1.384-1.14 2.774-1.68 4.174-.539 1.4-1.218 3.425-1.99 5.255l-1.667 3.865a.826.826 0 0 0-.034.2l.058.01.103-.019c.068-.021.134-.044.198-.072a.746.746 0 0 0 .203-.134l.67-.027 1.375-.034 2.742-.057a914.96 914.96 0 0 1 10.996-.109c5.697-.031 11.392.106 17.098.293l15.434.535c5.153.198 10.31.414 15.474.648l7.688.342c2.833.116 5.692.073 8.57.661.802.169 1.79.307 2.487 1.244.477.623.904 1.266 1.278 1.928.366.613.562 1.274.573 1.934a1.643 1.643 0 0 1-.294.908 2.066 2.066 0 0 1-.787.668c-1.044.503-2.256.765-3.514.759-3.287.164-6.568.377-9.874.349-1.647-.013-3.305-.113-4.946-.199l-14.883-.726-7.364-.328c-5.68-.257-11.337-.235-17.001-.314l-21.897-.261-2.496-.027-3.614-.018c-2.592-.006-4.999-.161-7.271-.249-1.32-.053-2.605-.088-3.88-.138l-.952-.026c-.114.002-.056-.104-.028-.152Z" fill="#F06400"/></svg>
